dist/icons/logo/logo-form.svg

<svg width="60" height="60" viewBox="0 0 60 60" fill="none" xmlns="http://www.w3.org/2000/svg">
<path d="M0 59.9988V0H60V59.9988L55.3906 59.9806V4.62752H4.6264V55.279H22.8771C31.5108 55.279 38.7945 50.0906 42.3053 41.6416C45.7044 33.4621 43.6917 19.3356 37.3256 13.4031C46.8249 19.8916 53.7954 33.4816 47.892 47.1286C44.4467 55.0969 37.2358 60 27.4998 60L0 59.9988ZM20.3824 22.8499V45.9426H14.2725V16.1757H18.4461C24.2768 16.1757 30.6513 16.8203 32.6118 23.6244C29.9266 22.7188 27.3954 22.8499 24.5147 22.8499H20.3824Z" fill="#F0DAB9"/>
</svg>

<svg width="60" height="60" fill="none" xmlns="http://www.w3.org/2000/svg"><path d="M0 59.999V0h60v59.999l-4.61-.018V4.628H4.627v50.651h18.251c8.634 0 15.918-5.188 19.428-13.637 3.4-8.18 1.387-22.306-4.98-28.239 9.5 6.489 16.47 20.079 10.567 33.726C44.447 55.097 37.236 60 27.5 60L0 59.999zm20.382-37.15v23.094h-6.11V16.176h4.174c5.83 0 12.205.644 14.166 7.448-2.685-.905-5.217-.774-8.097-.774h-4.133z" fill="#F0DAB9"/></svg>
